X:1
T:Hewitson's -- Hornpipe
R:hornpipe
B:Cole's 1000 Fiddle Tunes
M:2/4
L:1/16
K:F
((3ucde)|vgfcB ABcA|BcdB .G2(GF)|EFGE CDEC|FGAB =Bcde|
fcag fedc|dBba gfed|cfdB AFGE|F2F2F2:|
|:(uAB)|{d}vc=BcA Fafc|d^cdB Gbge|fcag fedc|BAGF ECDE|
FEFG Fafc|dBba gfed|cfdB AFGE|F2F2F2:|
